app/images/icons/question-mark.svg

<svg fill="none" height="12" viewBox="0 0 12 12" width="12" xmlns="http://www.w3.org/2000/svg"><rect fill="#484848" height="11" rx="1.5" stroke="#484848" width="11" x=".5" y=".5"/><path d="m3.18689 3.64203c-.066-.022-.099-.06967-.099-.143 0-.044.00367-.077.011-.099.23467-.54267.594-.957 1.078-1.243s1.05967-.429 1.727-.429c.528 0 .99733.088 1.408.264.41067.16866.726.39966.946.693.22733.29333.341.616.341.968 0 .27133-.05133.517-.154.737-.10267.21266-.22733.396-.374.55s-.341.33733-.583.55c-.352.308-.616.583-.792.825s-.264.539-.264.891c0 .05866-.022.11-.066.154-.044.03666-.09533.055-.154.055h-.902c-.154 0-.231-.08434-.231-.253 0-.33734.05133-.64167.154-.913.11-.27134.23833-.49867.385-.682.154-.19067.34833-.40334.583-.638.25667-.264.44-.47667.55-.638.11733-.16867.176-.352.176-.55 0-.25667-.099-.462-.297-.616-.19067-.16134-.43633-.242-.737-.242-.29333 0-.56833.08433-.825.253-.25667.16133-.44.38133-.55.66-.02933.05866-.05867.09533-.088.11-.02933.00733-.077.00733-.143 0zm3.476 6.094c0 .09533-.02567.165-.077.209-.044.03666-.11733.05497-.22.05497h-1.309c-.088 0-.15033-.01831-.187-.05497-.02933-.03667-.044-.09534-.044-.176v-1.364c0-.132.05867-.198.176-.198h1.507c.10267 0 .154.05866.154.176z" fill="#fff"/></svg>

<svg width="12" height="12" viewBox="0 0 12 12" fill="none" xmlns="http://www.w3.org/2000/svg">
<rect x="0.5" y="0.5" width="11" height="11" rx="1.5" fill="#484848" stroke="#484848"/>
<path d="M3.18689 3.64203C3.12089 3.62003 3.08789 3.57236 3.08789 3.49903C3.08789 3.45503 3.09156 3.42203 3.09889 3.40003C3.33356 2.85736 3.69289 2.44303 4.17689 2.15703C4.66089 1.87103 5.23656 1.72803 5.90389 1.72803C6.43189 1.72803 6.90122 1.81603 7.31189 1.99203C7.72256 2.16069 8.03789 2.39169 8.25789 2.68503C8.48522 2.97836 8.59889 3.30103 8.59889 3.65303C8.59889 3.92436 8.54756 4.17003 8.44489 4.39003C8.34222 4.60269 8.21756 4.78603 8.07089 4.94003C7.92422 5.09403 7.72989 5.27736 7.48789 5.49003C7.13589 5.79803 6.87189 6.07303 6.69589 6.31503C6.51989 6.55703 6.43189 6.85403 6.43189 7.20603C6.43189 7.26469 6.40989 7.31603 6.36589 7.36003C6.32189 7.39669 6.27056 7.41503 6.21189 7.41503H5.30989C5.15589 7.41503 5.07889 7.33069 5.07889 7.16203C5.07889 6.82469 5.13022 6.52036 5.23289 6.24903C5.34289 5.97769 5.47122 5.75036 5.61789 5.56703C5.77189 5.37636 5.96622 5.16369 6.20089 4.92903C6.45756 4.66503 6.64089 4.45236 6.75089 4.29103C6.86822 4.12236 6.92689 3.93903 6.92689 3.74103C6.92689 3.48436 6.82789 3.27903 6.62989 3.12503C6.43922 2.96369 6.19356 2.88303 5.89289 2.88303C5.59956 2.88303 5.32456 2.96736 5.06789 3.13603C4.81122 3.29736 4.62789 3.51736 4.51789 3.79603C4.48856 3.85469 4.45922 3.89136 4.42989 3.90603C4.40056 3.91336 4.35289 3.91336 4.28689 3.90603L3.18689 3.64203ZM6.66289 9.73603C6.66289 9.83136 6.63722 9.90103 6.58589 9.94503C6.54189 9.98169 6.46856 10 6.36589 10H5.05689C4.96889 10 4.90656 9.98169 4.86989 9.94503C4.84056 9.90836 4.82589 9.84969 4.82589 9.76903V8.40503C4.82589 8.27303 4.88456 8.20703 5.00189 8.20703H6.50889C6.61156 8.20703 6.66289 8.26569 6.66289 8.38303V9.73603Z" fill="white"/>
</svg>
